X:1
T:Asperges me
T:Asperges me
T:Tomás Luis de Victoria (1548-1611)
T:© 2013 by Paul R Marchesano. May be freely copid for nonprofit use.
T:© 2013 by Paul R Marchesano. May be freely copid for nonprofit use.
T:© 2013 by Paul R Marchesano. May be freely copid for nonprofit use.
T:© 2013 by Paul R Marchesano. May be freely copid for nonprofit use.
T:© 2013 by Paul R Marchesano. May be freely copid for nonprofit use.
C:Tomás Luis de Victoria
C:(1548-1611)
Z:© 2013 by Paul R Marchesano. May be freely copid for nonprofit use.
%%score [ 1 2 3 4 ]
L:1/8
Q:1/4=100
M:2/2
K:C
V:1 treble nm="Soprano" snm="S"
V:2 treble nm="Alto" snm="A"
V:3 treble-8 nm="Tenor" snm="T"
V:4 bass nm="Bass" snm="B"
V:1
 z8 | z4 d4 | e4 f4- | f4 e4 | d4 z4 | z2 e2 d4 | B4 ^c4 | d3 c/B/ ABcd | e2 e2 d4- | d4 B4- | %10
w: |Dó-||* mi-|ne,|hys- so-|po, _|et _ _ _ _ _ _|_ mun- dá-|* bor:|
 B4 z4 | G8 | A8 | c6 B2 | ^c2 d4 c2 | d4 z2 d2 | e2 e2 f4 | d2 g3 fed | c2 A2 c3 B | A2 G4 ^F2 | %20
w: _|la-|vá-||* * bis|me, et|su- per ni-|vem de- * * *|* al- bá- *||
 G8 || z16 | e4 ^f2 f2 | g6 ^f2 | g4 f4- | f4 z2 c2 | c2 d2 e2 c2 | d4 e3 d | cBAG A2 G2- | %29
w: bor.||Se- cun- dum|ma- *|* gnam|_ mi-|se- ri- cor- di-|am tu- *||
 G2 ^F2 G4 || z12 | z12 | z4 ^c4 | d4 B2 ^c2 | d4 d4 | z4 d3 d | d2 d2 d2 d2 | f4 e2 e2- | %38
w: * * am.|||Si-|* * cut|e- rat|in prin-|ci- pi- o, et|nunc et sem-|
 e2 d2 e4- | e4 z2 e2 | ^f4 g4- | g2 ^f2 g2 g2 | f8 | z2 c4 d2 | e2 c2 d4 | e3 d cBAG | A2 G4 ^F2 | %47
w: * * per,|_ et|in sae-|* * * cu-|la|sae- cu-|lo- rum. A-|||
 G8 |] %48
w: men.|
V:2
 z8 | A4 B4 | c4 A4 | _B6 A2 | A4 z2 A2 | G2 E2 FG A2- | A2 ^G2 A3 G/A/ | _B2 A2 z2 A2 | %8
w: |Dó- *||* mi-|ne, hys-|so- po, et _ _|_ mun- dá- * *|* bor: hys-|
 GE G2 ^F2 G2- | G2 ^F2 G2 D2- | D2 E4 F2- | F2 ED EFGE | ^F2 G4 F2 | G4 z2 D2 | A6 A2 | ^F4 z4 | %16
w: so- po, et mun- dá-|* * bor: la-|* * vá-||* * bis|me, la-|vá- bis|me,|
 G4 A2 A2 | B4 G4 | A6 G2 | FEDC D4 | D8 || z16 | z2 A2 A2 A2 | G3 A _B2 A2 | _B4 A2 A2 | %25
w: et su- per|ni- vem|de- al-|bá- * * * *|bor.||Se- cun- dum|ma- * * *|* gnam mi-|
 A2 B2 c3 B | A2 D2 G2 A2 | A2 B2 c2 G2 | A2 F3 EDC | D4 D4 || z12 | z12 | E4 A4 | A4 G2 G2- | %34
w: se- ri- cor- *|* di- am mi-|se- ri- cor- di-|am tu- * * *|* am.|||Si- cut|e- rat in|
 G2 ^F2 G2 G2 | C2 c4 B2 | B2 A2 B3 A/G/ | A2 A2 c2 B2 | A6 ^G2 | A4 z2 A2- | A2 A2 G3 A | %41
w: _ prin- ci- pi-|o, in prin-|ci- pi- o, _ _|_ et nunc et|sem- *|per, et|_ in sae- *|
 _B2 A2 B2 B2 | A2 A4 B2 | c3 B A2 D2 | G2 A4 B2 | c2 G2 A2 F2- | FEDC D4 | B,8 |] %48
w: * * * cu-|la sae- cu-|lo- * rum. in|_ sae- cu-|lo- rum. A- *||men.|
V:3
"^Antiph." GA (cB A) Bcd | d4 g3 f | g2 a3 gfe | d6 ^c2 | defd e4- | e4 z4 | z2 e2 e2 A2 | %7
w: A- * sper- * * ges _ me,|Dó- * *||* mi-|ne, _ _ _ _|_|hys- so- po,|
 z2 d2 c2 A2 | c6 B2 | A4 G4 | z8 | z8 | z4 z2 d2 | efge ^f2 g2- | g2 f2 e2 e2 | d2 A2 B2 B2 | %16
w: hys- so- po,|et mun-|dá- bor:|||la-|vá- * * * * *|* * * bis|me, et su- per|
 c4 A2 d2- | dcBA B2 c2 | c4 A2 c2- | c2 B2 A4 | G8 ||"^Ps." (GBA) c d dd (efe) ed de z2 | ^c4 d4 | %23
w: ni- vem de-|* * * * * al-|bá- bor. de-|* al- bá-|bor.|Mi- * * se- * re- re me- * i De- * us: _|Se- *|
 B2 ^c2 d4 | d2 d2 d2 d2 | d4 e4 | f4 e4 | d4 c4 | c6 B2 | A4 G4 ||"^V." (GcB) cdd ddd ddd | %31
w: cun- dum ma-|gnam mi- se- ri-|cor- *||di- am|tu- *|* am.|Glo- * * ri- * a Pa- tri, et Fi- li- o,|
 d d(def)ee ed de z | z4 e4 | ^f4 g4 | a4 z2 g2- | g2 ^f2 g2 g2 | d2 dd d2 d2 | d4 z2 e2 | %38
w: et Spi- ri- * * tu- i San- * cto: _|Si-|cut e-|rat in|_ prin- ci- pi-|o, in prin- ci- pi-|o, et|
 c2 A2 c2 B2 | A4 ^c4 | d4 B2 ^c2 | d6 d2 | d2 d2 d4 | e4 f4 | e4 d4 | c4 c4- | c2 B2 A4 | G8 |] %48
w: nunc et sem- *|per, et|_ in _|sae- cu-|la sae- cu-|* lo-||rum. A-||men.|
V:4
 z8 | z4 G,4 | C4 D3 C | _B,A, B,2 G,2 A,2 | D,2 D2 C2 A,2 | C4 D4 | E4 A,2 A,2 | G,2 D,2 F,4 | %8
w: |Dó-||* * * * mi-|ne, hys- so- po,|et mun-|dá- bor: hys-|so- po, et|
 C,4 D,4- | D,4 G,4 | G,4 A,4 | C3 B, CD E2 | D2 C2 D2 D2 | C3 B, A,2 G,2 | A,6 A,2 | D,4 G,4 | %16
w: mun- dá-|* bor:|la- *|vá- * * * *|* bis me, la-|vá- * * *|* bis|me, et|
 C,2 C,2 F,2 D,2 | G,3 F, E,2 C,2 | F,6 E,2 | F,2 G,2 D,4 | G,8 || z16 | A,4 D,2 D,2 | E,4 D,2 D2 | %24
w: su- per ni- vem|de- * * al-|bá- *||bor.||Se- cun- dum|ma- gnam Se-|
 G,2 G,2 D,4 | D,4 z2 A,2 | A,2 B,2 CB,A,G, | F,2 G,2 C,4 | F,3 E, D,4- | D,4 G,4 || z12 | z12 | %32
w: cun- dum ma-|gnam mi-|se- ri- cor- * * *|* di- am|tu- * *|* am.|||
 z4 A,4 | D4 E4 | D2 D,2 G,4 | A,4 G,2 G,2- | G,2 ^F,2 G,2 G,2 | D,2 D,2 A,2 ^G,2 | A,2 F,2 E,4 | %39
w: Si-|cut e-|rat Si- cut|e- rat in|_ prin- ci- pi-|o, et nunc et|sem- * per,|
 z4 A,4 | D,4 E,2 E,2 | D,2 DD G,2 G,2 | D,8 | z2 A,4 B,2 | CB,A,G, F,2 G,2 | C,4 F,3 E, | D,8 | %47
w: et|in sae- cu-|la et in sae- cu-|la|sae- cu-|lo- * * * * rum.|A- * *||
 G,8 |] %48
w: men.|

